Assets/Icons/expression/certificate.svg

<svg enable-background="new 0 0 60 60" viewBox="0 0 60 60" xmlns="http://www.w3.org/2000/svg"><path d="m27 18c0-.28-.22-.5-.5-.5h-17c-.28 0-.5.22-.5.5 0 1.38 1.12 2.5 2.5 2.5h15c.28 0 .5-.22.5-.5z"/><path d="m27 25c0-.28-.22-.5-.5-.5h-17c-.28 0-.5.22-.5.5 0 1.38 1.12 2.5 2.5 2.5h15c.28 0 .5-.22.5-.5z"/><path d="m26.5 31.5h-17c-.28 0-.5.22-.5.5 0 1.38 1.12 2.5 2.5 2.5h15c.28 0 .5-.22.5-.5v-2c0-.28-.22-.5-.5-.5z"/><path d="m41 15.5c-5.79 0-10.5 4.71-10.5 10.5s4.71 10.5 10.5 10.5 10.5-4.71 10.5-10.5-4.71-10.5-10.5-10.5zm0 18c-4.14 0-7.5-3.36-7.5-7.5s3.36-7.5 7.5-7.5 7.5 3.36 7.5 7.5-3.36 7.5-7.5 7.5z"/><path d="m49 37c-1.39 0-2.51 1.12-2.51 2.5v12.22l-4.71-2.02c-.5-.22-1.07-.22-1.58 0l-4.71 2.02v-12.22c0-1.38-1.12-2.5-2.5-2.5h.01c-.28 0-.5.22-.5.5v15.75c0 1.44 1.47 2.4 2.79 1.84l5.71-2.45 5.72 2.45c1.32.57 2.79-.4 2.79-1.84v-15.75c-.01-.28-.23-.5-.51-.5z"/><path d="m43.5 24h-5c-.28 0-.5.22-.5.5v1c0 1.38 1.12 2.5 2.5 2.5h1c1.38 0 2.5-1.12 2.5-2.5v-1c0-.28-.22-.5-.5-.5z"/><path d="m56.5 4.5h-53c-1.1 0-2 .9-2 2v29.5c0 6.35 5.15 11.5 11.5 11.5h16.5c.28 0 .5-.22.5-.5 0-1.38-1.12-2.5-2.5-2.5h-14.5c-4.69 0-8.5-3.81-8.5-8.5v-28.5h51v37h-1c-1.38 0-2.5 1.12-2.5 2.5 0 .28.22.5.5.5h4c1.1 0 2-.9 2-2v-39c0-1.1-.9-2-2-2z"/></svg>

<?xml version="1.0" encoding="utf-8"?>
<!-- Generator: Adobe Illustrator 21.1.0, SVG Export Plug-In . SVG Version: 6.00 Build 0)  -->
<svg version="1.1" id="EPS" xmlns="http://www.w3.org/2000/svg" xmlns:xlink="http://www.w3.org/1999/xlink" x="0px" y="0px"
	 viewBox="0 0 60 60" style="enable-background:new 0 0 60 60;" xml:space="preserve">
<g>
	<path d="M27,18c0-0.28-0.22-0.5-0.5-0.5h-17C9.22,17.5,9,17.72,9,18c0,1.38,1.12,2.5,2.5,2.5h15c0.28,0,0.5-0.22,0.5-0.5V18z"/>
	<path d="M27,25c0-0.28-0.22-0.5-0.5-0.5h-17C9.22,24.5,9,24.72,9,25c0,1.38,1.12,2.5,2.5,2.5h15c0.28,0,0.5-0.22,0.5-0.5V25z"/>
	<path d="M26.5,31.5h-17C9.22,31.5,9,31.72,9,32c0,1.38,1.12,2.5,2.5,2.5h15c0.28,0,0.5-0.22,0.5-0.5v-2
		C27,31.72,26.78,31.5,26.5,31.5z"/>
	<path d="M41,15.5c-5.79,0-10.5,4.71-10.5,10.5S35.21,36.5,41,36.5S51.5,31.79,51.5,26S46.79,15.5,41,15.5z M41,33.5
		c-4.14,0-7.5-3.36-7.5-7.5s3.36-7.5,7.5-7.5s7.5,3.36,7.5,7.5S45.14,33.5,41,33.5z"/>
	<path d="M49,37L49,37c-1.39,0-2.51,1.12-2.51,2.5v12.22l-4.71-2.02c-0.5-0.22-1.07-0.22-1.58,0l-4.71,2.02V39.5
		c0-1.38-1.12-2.5-2.5-2.5H33c-0.28,0-0.5,0.22-0.5,0.5v15.75c0,1.44,1.47,2.4,2.79,1.84L41,52.64l5.72,2.45
		c1.32,0.57,2.79-0.4,2.79-1.84V37.5C49.5,37.22,49.28,37,49,37z"/>
	<path d="M43.5,24h-5c-0.28,0-0.5,0.22-0.5,0.5v1c0,1.38,1.12,2.5,2.5,2.5h1c1.38,0,2.5-1.12,2.5-2.5v-1C44,24.22,43.78,24,43.5,24z
		"/>
	<path d="M56.5,4.5h-53c-1.1,0-2,0.9-2,2V36c0,6.35,5.15,11.5,11.5,11.5h16.5c0.28,0,0.5-0.22,0.5-0.5c0-1.38-1.12-2.5-2.5-2.5H13
		c-4.69,0-8.5-3.81-8.5-8.5V7.5h51v37h-1c-1.38,0-2.5,1.12-2.5,2.5c0,0.28,0.22,0.5,0.5,0.5h4c1.1,0,2-0.9,2-2v-39
		C58.5,5.4,57.6,4.5,56.5,4.5z"/>
</g>
</svg>
